X: 3034
T: Bay Boys, The
R: polka
M: 2/4
K: Cmajor
|:Gc cG|cB AG|Ad AG|cB AG|
Gc cG|cB AG|Ad AB|c2 c2:|
|:eg ec/e/|de Gc/G/|AB AG|ec/e/ d2|
eg ec/e/|de Gc/G/|Ad AB|c2 c2:|

